icon/lg/aws-codestar.svg

<?xml version="1.0" encoding="UTF-8"?>
<svg viewBox="0 0 256 256" version="1.1" xmlns="http://www.w3.org/2000/svg" xmlns:xlink="http://www.w3.org/1999/xlink" preserveAspectRatio="xMidYMid" height="1em" width="1em">
  <defs>
    <linearGradient x1="0%" y1="100%" x2="100%" y2="0%" id="linearGradient-1">
      <stop stop-color="#2E27AD" offset="0%"/>
      <stop stop-color="#527FFF" offset="100%"/>
    </linearGradient>
  </defs>
  <g>
    <rect fill="url(#linearGradient-1)" x="0" y="0" width="256" height="256"/>
    <path d="M201.43942,111.37966 C207.742256,107.747978 209.912138,99.675105 206.272337,93.3863274 C204.509706,90.3387626 201.658954,88.1578486 198.254595,87.2467536 C197.118748,86.9419971 195.963811,86.7927936 194.81842,86.7927936 C192.530818,86.7927936 190.271851,87.3896083 188.23878,88.5641907 C185.184402,90.3228896 182.995431,93.1641091 182.0823,96.564049 C181.172349,99.9608141 181.636869,103.509958 183.402682,106.557523 C187.042482,112.8463 195.139765,115.014516 201.43942,111.37966 L201.43942,111.37966 Z M209.632153,124.852437 L212.813796,130.350752 L197.357371,139.252182 L193.504401,119.40174 C187.230199,118.963652 181.267799,115.563712 177.892075,109.73207 C175.276763,105.217864 174.586347,99.954465 175.935364,94.9164592 C177.290744,89.8816275 180.529657,85.6721786 185.057136,83.0658755 C189.57507,80.4595725 194.847054,79.7611722 199.902686,81.113529 C204.951955,82.4627114 209.170814,85.6944003 211.782944,90.2117805 C217.17583,99.5322502 213.965552,111.497118 204.621064,116.877975 L204.621064,116.877975 C203.097057,117.757324 201.499871,118.404932 199.874052,118.83667 L201.90394,129.299977 L209.632153,124.852437 Z M187.392463,163.308898 C184.334903,161.547025 180.781007,161.080366 177.376648,161.991461 C173.969108,162.902556 171.121537,165.08347 169.358906,168.131035 C166.87086,172.429372 167.150845,177.534043 169.556168,181.514925 L172.292381,184.660901 L172.228748,184.718043 C172.833261,185.232319 173.479135,185.718025 174.191823,186.127542 L174.191823,186.124367 C177.249382,187.886241 180.80646,188.352899 184.207637,187.441804 C187.611996,186.530709 190.462749,184.349796 192.22538,181.30223 C195.86518,175.013453 193.695299,166.94058 187.392463,163.308898 L187.392463,163.308898 Z M197.735987,184.476777 C195.123857,188.994157 190.901816,192.225846 185.855729,193.575029 C184.169458,194.025814 182.457733,194.248033 180.758736,194.248033 C177.370285,194.248033 174.023196,193.362334 171.010179,191.625857 L171.010179,191.622683 C169.664344,190.851268 168.464864,189.927474 167.379924,188.90527 L162.811083,192.857581 L170.536114,197.301947 L167.35447,202.803437 L151.8885,193.898833 L163.523771,183.838693 C160.488483,178.099112 160.361217,170.978604 163.848299,164.956488 C166.460428,160.439108 170.679288,157.210594 175.728557,155.861411 C180.781007,154.50588 186.049809,155.20428 190.574107,157.810583 C195.101586,160.416886 198.337317,164.626335 199.689516,169.664341 C201.041715,174.702347 200.348116,179.962572 197.735987,184.476777 L197.735987,184.476777 Z M128.44933,198.076536 C128.44933,190.809998 122.521928,184.898992 115.242327,184.898992 C107.962726,184.898992 102.038505,190.809998 102.038505,198.076536 C102.038505,205.3399 107.962726,211.250906 115.242327,211.250906 C122.521928,211.250906 128.44933,205.3399 128.44933,198.076536 L128.44933,198.076536 Z M134.812618,198.076536 C134.812618,208.841425 126.034463,217.6 115.242327,217.6 C104.453373,217.6 95.6752176,208.841425 95.6752176,198.076536 C95.6752176,196.562277 95.8629347,195.095637 96.1938256,193.679789 L87.9915478,190.844918 L87.9915478,200.409828 L81.6282605,200.409828 L81.6282605,181.927616 L98.6309648,187.806877 C102.08623,182.260943 108.229984,178.549898 115.242327,178.549898 C126.034463,178.549898 134.812618,187.308473 134.812618,198.076536 L134.812618,198.076536 Z M72.8310154,147.109185 C71.0683846,144.06162 68.2208134,141.880707 64.8164547,140.969612 C61.4120957,140.061691 57.8581997,140.525175 54.7974582,142.287049 C51.7430803,144.045748 49.5604726,146.886967 48.6473411,150.286907 C47.7310275,153.683672 48.2019107,157.232815 49.9677232,160.28038 C51.7271722,163.327946 54.5779251,165.508859 57.9822838,166.419954 C61.3802794,167.331049 64.9405389,166.867565 68.00128,165.102517 C74.3041165,161.470836 76.4739974,153.397963 72.8310154,147.109185 L72.8310154,147.109185 Z M71.1829238,170.600833 C68.1667254,172.340484 64.8228179,173.226183 61.4311856,173.226183 C59.7321878,173.226183 58.0204637,173.003965 56.3373741,172.553179 C51.2881053,171.203996 47.066064,167.972308 44.4539344,163.454927 C41.8418048,158.940722 41.145025,153.680498 42.5004051,148.642492 C43.8526038,143.604485 47.0883354,139.395036 51.6158147,136.788733 L51.6158147,136.785559 C52.532128,136.258584 53.4834394,135.833195 54.453841,135.461772 L52.4812218,125.312746 L44.788007,129.753937 L41.6,124.258796 L57.0277907,115.351018 L60.6834995,134.18243 C62.6052122,134.11259 64.5523782,134.328459 66.4613645,134.836387 C71.5106333,136.185569 75.7294928,139.417258 78.3448038,143.934638 C83.7376902,153.255108 80.5242301,165.219976 71.1829238,170.600833 L71.1829238,170.600833 Z M77.3648576,72.2120995 L77.3648576,72.2120995 C75.2936077,71.0184698 73.0250957,70.4502259 70.7884,70.4502259 C66.2195597,70.4502259 61.7716214,72.8120886 59.328119,77.0342362 C57.5623069,80.0818013 57.0977869,83.6309446 58.007737,87.0308845 C58.9208688,90.4276496 61.1098397,93.2688691 64.1642176,95.0275683 C67.2154141,96.7894419 70.7724918,97.2592749 74.1800323,96.3450051 C77.584391,95.4339104 80.435144,93.2561712 82.194593,90.2086061 C85.837575,83.9166541 83.6676941,75.8437811 77.3648576,72.2120995 L77.3648576,72.2120995 Z M87.5652077,73.6438202 C91.055471,79.5199066 91.367272,87.056281 87.7083818,93.383153 C85.0962522,97.8973587 80.8742109,101.129047 75.8281238,102.47823 C74.1418525,102.929016 72.4301283,103.151234 70.7311306,103.151234 C67.3426797,103.151234 63.9955904,102.262361 60.9825738,100.529058 C56.4550947,97.9195805 53.2161814,93.7101312 51.8608013,88.6752998 C50.5086026,83.6372938 51.202201,78.3770694 53.817512,73.8596893 C59.2135798,64.5360448 71.2051952,61.3297526 80.5465014,66.713784 L80.5465014,66.713784 C81.6028074,67.3232973 82.5668454,68.024872 83.4640688,68.7867632 L91.5836237,61.7519674 L83.8808643,57.3044269 L87.0688714,51.8061117 L102.480754,60.7107158 L87.5652077,73.6438202 Z M151.859865,57.9266381 C151.859865,50.6632749 145.935644,44.7490938 138.652862,44.7490938 C131.373261,44.7490938 125.445859,50.6632749 125.445859,57.9266381 C125.445859,65.193176 131.373261,71.101008 138.652862,71.101008 C145.935644,71.101008 151.859865,65.193176 151.859865,57.9266381 L151.859865,57.9266381 Z M172.266928,72.6374886 L155.954641,67.0248896 C152.668003,73.2184307 146.148814,77.4501018 138.652862,77.4501018 C127.860726,77.4501018 119.082571,68.6915267 119.082571,57.9266381 C119.082571,47.1617494 127.860726,38.4 138.652862,38.4 C149.441816,38.4 158.223153,47.1617494 158.223153,57.9266381 C158.223153,58.9742387 158.118158,59.9932682 157.955895,60.996425 L165.903641,63.7328845 L165.903641,55.5901715 L172.266928,55.5901715 L172.266928,72.6374886 Z M140.813198,104.402005 L134.984427,101.852844 L112.566564,152.797973 L118.395336,155.350309 L140.813198,104.402005 Z M165.003236,128.706337 L146.632424,110.805067 L142.19085,115.347843 L155.245134,128.071427 L140.647752,139.001392 L144.468907,144.077493 L165.003236,128.706337 Z M107.055957,141.652139 L88.688328,123.754044 L109.222657,108.379713 L113.043811,113.458988 L98.4432477,124.385778 L111.497532,137.109363 L107.055957,141.652139 Z" fill="#FFFFFF"/>
  </g>
</svg>

<svg width="256" height="256" xmlns="http://www.w3.org/2000/svg" preserveAspectRatio="xMidYMid"><defs><linearGradient x1="0%" y1="100%" x2="100%" y2="0%" id="a"><stop stop-color="#2E27AD" offset="0%"/><stop stop-color="#527FFF" offset="100%"/></linearGradient></defs><path fill="url(#a)" d="M0 0h256v256H0z"/><path d="M201.44 111.38c6.302-3.632 8.472-11.705 4.832-17.994a13.121 13.121 0 0 0-8.017-6.14 13.256 13.256 0 0 0-3.437-.453c-2.287 0-4.546.597-6.58 1.771a13.096 13.096 0 0 0-6.156 8 13.058 13.058 0 0 0 1.32 9.994c3.64 6.288 11.738 8.457 18.037 4.822Zm8.192 13.472 3.182 5.499-15.457 8.901-3.853-19.85c-6.274-.438-12.236-3.838-15.612-9.67-2.615-4.514-3.306-9.778-1.957-14.816a19.41 19.41 0 0 1 9.122-11.85 19.456 19.456 0 0 1 14.846-1.952 19.423 19.423 0 0 1 11.88 9.098c5.393 9.32 2.183 21.285-7.162 26.666a19.504 19.504 0 0 1-4.747 1.959l2.03 10.463 7.728-4.448Zm-22.24 38.457a13.126 13.126 0 0 0-10.015-1.318 13.113 13.113 0 0 0-8.018 6.14c-2.488 4.298-2.208 9.403.197 13.384l2.736 3.146-.063.057c.604.514 1.25 1 1.963 1.41v-.004a13.128 13.128 0 0 0 10.016 1.318 13.121 13.121 0 0 0 8.017-6.14c3.64-6.289 1.47-14.361-4.833-17.993Zm10.344 21.168a19.431 19.431 0 0 1-11.88 9.098 19.477 19.477 0 0 1-14.846-1.95v-.002a19.259 19.259 0 0 1-3.63-2.718l-4.569 3.953 7.725 4.444-3.182 5.501-15.466-8.904 11.636-10.06c-3.036-5.74-3.163-12.86.324-18.883 2.612-4.517 6.831-7.745 11.88-9.095a19.446 19.446 0 0 1 14.846 1.95 19.386 19.386 0 0 1 9.116 11.853 19.357 19.357 0 0 1-1.954 14.813Zm-69.287 13.6c0-7.267-5.927-13.178-13.207-13.178-7.28 0-13.203 5.911-13.203 13.178 0 7.263 5.924 13.174 13.203 13.174 7.28 0 13.207-5.911 13.207-13.174Zm6.364 0c0 10.764-8.779 19.523-19.57 19.523-10.79 0-19.568-8.759-19.568-19.523 0-1.515.188-2.981.519-4.397l-8.202-2.835v9.565h-6.364v-18.482l17.003 5.879c3.455-5.546 9.599-9.257 16.611-9.257 10.792 0 19.57 8.758 19.57 19.527ZM72.83 147.109a13.115 13.115 0 0 0-8.015-6.14 13.15 13.15 0 0 0-10.019 1.318 13.086 13.086 0 0 0-6.15 8 13.03 13.03 0 0 0 1.32 9.993 13.106 13.106 0 0 0 8.015 6.14c3.398.911 6.959.448 10.02-1.317 6.302-3.632 8.472-11.705 4.829-17.994Zm-1.648 23.492a19.459 19.459 0 0 1-9.752 2.625c-1.699 0-3.41-.222-5.094-.673a19.43 19.43 0 0 1-11.883-9.098 19.343 19.343 0 0 1-1.954-14.813 19.386 19.386 0 0 1 9.116-11.853v-.003a19.983 19.983 0 0 1 2.838-1.324l-1.973-10.15-7.693 4.442-3.188-5.495 15.428-8.908 3.655 18.831a19.69 19.69 0 0 1 5.778.654 19.438 19.438 0 0 1 11.884 9.099c5.393 9.32 2.18 21.285-7.162 26.666Zm6.182-98.389a13.142 13.142 0 0 0-6.577-1.762c-4.568 0-9.016 2.362-11.46 6.584a13.064 13.064 0 0 0-1.32 9.997 13.098 13.098 0 0 0 6.156 7.997 13.106 13.106 0 0 0 10.016 1.317 13.102 13.102 0 0 0 8.015-6.136c3.643-6.292 1.473-14.365-4.83-17.997Zm10.2 1.432c3.49 5.876 3.802 13.412.143 19.74a19.438 19.438 0 0 1-11.88 9.094 19.51 19.51 0 0 1-14.846-1.95c-4.527-2.608-7.766-6.818-9.121-11.853a19.354 19.354 0 0 1 1.957-14.815c5.396-9.324 17.387-12.53 26.729-7.146 1.056.61 2.02 1.31 2.917 2.073l8.12-7.035-7.703-4.448 3.188-5.498 15.412 8.905-14.916 12.933Zm64.295-15.717c0-7.264-5.924-13.178-13.207-13.178-7.28 0-13.207 5.914-13.207 13.178 0 7.266 5.927 13.174 13.207 13.174 7.283 0 13.207-5.908 13.207-13.174Zm20.407 14.71-16.312-5.612c-3.287 6.193-9.806 10.425-17.302 10.425-10.792 0-19.57-8.758-19.57-19.523S127.86 38.4 138.653 38.4c10.789 0 19.57 8.762 19.57 19.527 0 1.047-.105 2.066-.267 3.07l7.948 2.736V55.59h6.363v17.047Zm-31.454 31.765-5.829-2.55-22.417 50.946 5.828 2.552 22.418-50.948Zm24.19 24.304-18.37-17.9-4.442 4.542 13.054 12.723-14.597 10.93 3.82 5.076 20.535-15.37Zm-57.947 12.946-18.368-17.898 20.535-15.374 3.82 5.079-14.6 10.927 13.055 12.723-4.442 4.543Z" fill="#FFF"/></svg>
